communes/432.svg

<?xml version="1.0" encoding="UTF-8" standalone="no"?>
<svg
   xmlns:dc="http://purl.org/dc/elements/1.1/"
   xmlns:cc="http://web.resource.org/cc/"
   xmlns:rdf="http://www.w3.org/1999/02/22-rdf-syntax-ns#"
   xmlns:svg="http://www.w3.org/2000/svg"
   xmlns="http://www.w3.org/2000/svg"
   xmlns:xlink="http://www.w3.org/1999/xlink"
   xmlns:sodipodi="http://sodipodi.sourceforge.net/DTD/sodipodi-0.dtd"
   xmlns:inkscape="http://www.inkscape.org/namespaces/inkscape"
   height="763"
   width="603"
   version="1.0"
   id="svg20"
   sodipodi:version="0.32"
   inkscape:version="0.44.1"
   sodipodi:docname="Cormoret-coat of arms.svg"
   sodipodi:docbase="F:\MIS DOCUMENTOS\Mis imágenes\Encyclopédie\Escudos de Suiza">
  <metadata
     id="metadata31">
    <rdf:RDF>
      <cc:Work
         rdf:about="">
        <dc:format>image/svg+xml</dc:format>
        <dc:type
           rdf:resource="http://purl.org/dc/dcmitype/StillImage" />
        <dc:date>07-AUG-2006</dc:date>
        <dc:creator>
          <cc:Agent>
            <dc:title>Jérôme BLUM (wagner51)</dc:title>
          </cc:Agent>
        </dc:creator>
        <cc:license
           rdf:resource="http://creativecommons.org/licenses/GPL/2.0/" />
        <dc:coverage />
        <dc:description>Gabarit pour le Projet:Blasons de WIkipédia</dc:description>
        <dc:subject>
          <rdf:Bag>
            <rdf:li>blason suisse modèle gabarit projet blasons</rdf:li>
          </rdf:Bag>
        </dc:subject>
        <dc:language>fr</dc:language>
        <dc:title>Gabrit d'un blason suisse</dc:title>
      </cc:Work>
      <cc:License
         rdf:about="http://creativecommons.org/licenses/GPL/2.0/">
        <cc:permits
           rdf:resource="http://web.resource.org/cc/Reproduction" />
        <cc:permits
           rdf:resource="http://web.resource.org/cc/Distribution" />
        <cc:requires
           rdf:resource="http://web.resource.org/cc/Notice" />
        <cc:permits
           rdf:resource="http://web.resource.org/cc/DerivativeWorks" />
        <cc:requires
           rdf:resource="http://web.resource.org/cc/ShareAlike" />
        <cc:requires
           rdf:resource="http://web.resource.org/cc/SourceCode" />
      </cc:License>
    </rdf:RDF>
  </metadata>
  <defs
     id="defs29">
    <linearGradient
       id="linearGradient2893">
      <stop
         style="stop-color:#ffffff;stop-opacity:0.3137255;"
         offset="0"
         id="stop2895" />
      <stop
         id="stop2897"
         offset="0.19"
         style="stop-color:#ffffff;stop-opacity:0.25098041;" />
      <stop
         style="stop-color:#6b6b6b;stop-opacity:0.1254902;"
         offset="0.60000002"
         id="stop2901" />
      <stop
         style="stop-color:#000000;stop-opacity:0.1254902;"
         offset="1"
         id="stop2899" />
    </linearGradient>
    <linearGradient
       id="linearGradient2955">
      <stop
         style="stop-color:white;stop-opacity:0;"
         offset="0"
         id="stop2965" />
      <stop
         style="stop-color:black;stop-opacity:0.64583331;"
         offset="1"
         id="stop2959" />
    </linearGradient>
    <radialGradient
       inkscape:collect="always"
       xlink:href="#linearGradient2893"
       id="radialGradient3236"
       gradientUnits="userSpaceOnUse"
       gradientTransform="matrix(1.215027,1.531577e-24,1.464684e-23,1.266667,-839.1924,-490.4894)"
       cx="858.04236"
       cy="579.93323"
       fx="858.04236"
       fy="579.93323"
       r="300" />
  </defs>
  <sodipodi:namedview
     inkscape:window-height="682"
     inkscape:window-width="1024"
     inkscape:pageshadow="2"
     inkscape:pageopacity="0.0"
     guidetolerance="10.0"
     gridtolerance="10.0"
     objecttolerance="10.0"
     borderopacity="1.0"
     bordercolor="#666666"
     pagecolor="#ffffff"
     id="base"
     inkscape:zoom="0.48301887"
     inkscape:cx="335.06248"
     inkscape:cy="421.37798"
     inkscape:window-x="-4"
     inkscape:window-y="-4"
     inkscape:current-layer="layer2"
     showgrid="true" />
  <desc
     id="desc22">Coat of Arms of Canton of Freiburg (Fribourg)</desc>
  <g
     inkscape:groupmode="layer"
     id="layer1"
     inkscape:label="Fond écu"
     style="display:inline"
     sodipodi:insensitive="true">
    <path
       id="path1899"
       d="M 1.5,1.49998 L 1.5,460.3679 C 1.5,626.6785 135.81456,761.5 301.49999,761.5 C 467.18543,761.5 601.5,626.6785 601.5,460.3679 L 601.5,1.49998 L 1.5,1.49998 z "
       style="fill:#fcef3c;fill-opacity:1" />
    <path
       style="fill:#2b5df2;fill-opacity:1;stroke:black;stroke-width:3.00000072;stroke-miterlimit:4;stroke-dasharray:none;stroke-opacity:1"
       d="M 121.5,1.5 L 121.5,701.3125 C 155.59393,727.01684 195.33119,745.55152 238.5,754.8125 L 238.5,1.5 L 121.5,1.5 z "
       id="rect2798" />
    <path
       style="fill:#2b5df2;fill-opacity:1;stroke:black;stroke-width:3.00000072;stroke-miterlimit:4;stroke-dasharray:none;stroke-opacity:1"
       d="M 361.5,1.5 L 361.5,755.46875 C 404.57732,746.69243 444.28009,728.64391 478.5,703.5 L 478.5,1.5 L 361.5,1.5 z "
       id="rect3685" />
    <path
       style="fill:white;fill-opacity:1;stroke:black;stroke-width:2.9999361;stroke-miterlimit:4;stroke-dasharray:none;stroke-opacity:1"
       d="M 1.5,1.5 L 1.5,220.03125 L 481.875,701 C 548.52856,650.57859 593.5523,572.89869 600.53125,484.46875 L 118.1875,1.5 L 1.5,1.5 z "
       id="rect3698" />
  </g>
  <g
     inkscape:groupmode="layer"
     id="layer2"
     inkscape:label="Meubles">
    <path
       transform="matrix(0.953191,2.73093e-2,-2.835998e-2,1.000358,697.9935,230.1718)"
       d="M -341.60156,220.57813 L -412.74011,185.1626 L -482.24411,223.68724 L -470.54497,145.08646 L -528.66199,90.888992 L -450.29297,77.726563 L -416.70727,5.7060486 L -379.9717,76.172004 L -301.09756,85.858342 L -356.76275,142.57113 L -341.60156,220.57813 z "
       inkscape:randomized="0"
       inkscape:rounded="0"
       inkscape:flatsided="false"
       sodipodi:arg2="1.5486934"
       sodipodi:arg1="0.92037491"
       sodipodi:r2="59.833466"
       sodipodi:r1="119.66693"
       sodipodi:cy="125.34375"
       sodipodi:cx="-414.0625"
       sodipodi:sides="5"
       id="path5477"
       style="fill:#e20909;fill-opacity:1;stroke:black;stroke-width:3.07098174;stroke-miterlimit:4;stroke-dasharray:none;stroke-opacity:1"
       sodipodi:type="star" />
    <path
       sodipodi:type="star"
       style="fill:#e20909;fill-opacity:1;stroke:black;stroke-width:3.0709846;stroke-miterlimit:4;stroke-dasharray:none;stroke-opacity:1"
       id="path4590"
       sodipodi:sides="5"
       sodipodi:cx="-414.0625"
       sodipodi:cy="125.34375"
       sodipodi:r1="119.66693"
       sodipodi:r2="59.833466"
       sodipodi:arg1="0.92037491"
       sodipodi:arg2="1.5486934"
       inkscape:flatsided="false"
       inkscape:rounded="0"
       inkscape:randomized="0"
       d="M -341.60156,220.57813 L -412.74011,185.1626 L -482.24411,223.68724 L -470.54497,145.08646 L -528.66199,90.888992 L -450.29297,77.726563 L -416.70727,5.7060486 L -379.9717,76.172004 L -301.09756,85.858342 L -356.76275,142.57113 L -341.60156,220.57813 z "
       transform="matrix(0.953189,2.73093e-2,-2.835993e-2,1.000358,527.9924,57.0247)" />
    <path
       sodipodi:type="star"
       style="fill:#e20909;fill-opacity:1;stroke:black;stroke-width:3.07098174;stroke-miterlimit:4;stroke-dasharray:none;stroke-opacity:1"
       id="path5479"
       sodipodi:sides="5"
       sodipodi:cx="-414.0625"
       sodipodi:cy="125.34375"
       sodipodi:r1="119.66693"
       sodipodi:r2="59.833466"
       sodipodi:arg1="0.92037491"
       sodipodi:arg2="1.5486934"
       inkscape:flatsided="false"
       inkscape:rounded="0"
       inkscape:randomized="0"
       d="M -341.60156,220.57813 L -412.74011,185.1626 L -482.24411,223.68724 L -470.54497,145.08646 L -528.66199,90.888992 L -450.29297,77.726563 L -416.70727,5.7060486 L -379.9717,76.172004 L -301.09756,85.858342 L -356.76275,142.57113 L -341.60156,220.57813 z "
       transform="matrix(0.953191,2.73093e-2,-2.835998e-2,1.000358,867.9935,400.1718)" />
  </g>
  <g
     inkscape:groupmode="layer"
     id="layer3"
     inkscape:label="Reflet final"
     style="display:inline"
     sodipodi:insensitive="true">
    <path
       style="fill:url(#radialGradient3236);fill-opacity:1"
       d="M 1.5,1.5 L 1.5,460.3679 C 1.5,626.67854 135.81454,761.5 301.49993,761.5 C 467.1854,761.5 601.5,626.67854 601.5,460.3679 L 601.5,1.5 L 1.5,1.5 z "
       id="path2346" />
  </g>
  <g
     inkscape:groupmode="layer"
     id="layer4"
     inkscape:label="Contour final"
     style="display:inline"
     sodipodi:insensitive="true">
    <path
       style="fill:none;fill-opacity:1;stroke:black;stroke-width:3;stroke-miterlimit:4;stroke-dasharray:none;stroke-opacity:1"
       d="M 1.5,1.5 L 1.5,460.36794 C 1.5,626.67854 135.81454,761.5 301.49993,761.5 C 467.1854,761.5 601.5,626.67854 601.5,460.36794 L 601.5,1.5 L 1.5,1.5 z "
       id="path3239" />
  </g>
</svg>

<?xml version="1.0" encoding="UTF-8"?>
<svg version="1.0" viewBox="0 0 603 763" xmlns="http://www.w3.org/2000/svg" xmlns:cc="http://web.resource.org/cc/" xmlns:dc="http://purl.org/dc/elements/1.1/" xmlns:rdf="http://www.w3.org/1999/02/22-rdf-syntax-ns#" xmlns:xlink="http://www.w3.org/1999/xlink">
<metadata>
<rdf:RDF>
<cc:Work rdf:about="">
<dc:format>image/svg+xml</dc:format>
<dc:type rdf:resource="http://purl.org/dc/dcmitype/StillImage"/>
<dc:date>07-AUG-2006</dc:date>
<dc:creator>
<cc:Agent>
<dc:title>Jérôme BLUM (wagner51)</dc:title>
</cc:Agent>
</dc:creator>
<cc:license rdf:resource="http://creativecommons.org/licenses/GPL/2.0/"/>
<dc:coverage/>
<dc:description>Gabarit pour le Projet:Blasons de WIkipédia</dc:description>
<dc:subject>
<rdf:Bag>
<rdf:li>blason suisse modèle gabarit projet blasons</rdf:li>
</rdf:Bag>
</dc:subject>
<dc:language>fr</dc:language>
<dc:title>Gabrit d'un blason suisse</dc:title>
</cc:Work>
<cc:License rdf:about="http://creativecommons.org/licenses/GPL/2.0/">
<cc:permits rdf:resource="http://web.resource.org/cc/Reproduction"/>
<cc:permits rdf:resource="http://web.resource.org/cc/Distribution"/>
<cc:requires rdf:resource="http://web.resource.org/cc/Notice"/>
<cc:permits rdf:resource="http://web.resource.org/cc/DerivativeWorks"/>
<cc:requires rdf:resource="http://web.resource.org/cc/ShareAlike"/>
<cc:requires rdf:resource="http://web.resource.org/cc/SourceCode"/>
</cc:License>
</rdf:RDF>
</metadata>
<defs>
<radialGradient id="a" cx="858.04" cy="579.93" r="300" gradientTransform="matrix(1.215 1.5316e-24 1.4647e-23 1.2667 -839.19 -490.49)" gradientUnits="userSpaceOnUse">
<stop stop-color="#fff" stop-opacity=".31373" offset="0"/>
<stop stop-color="#fff" stop-opacity=".25098" offset=".19"/>
<stop stop-color="#6b6b6b" stop-opacity=".12549" offset=".6"/>
<stop stop-opacity=".12549" offset="1"/>
</radialGradient>
</defs>
<desc>Coat of Arms of Canton of Freiburg (Fribourg)</desc>
<g>
<path d="m1.5 1.5v458.87c0 166.31 134.31 301.13 300 301.13 165.69 0 300-134.82 300-301.13v-458.87h-600z" fill="#fcef3c"/>
<path d="m121.5 1.5v699.81c34.094 25.704 73.831 44.239 117 53.5v-753.31h-117z" fill="#2b5df2" stroke="#000" stroke-width="3"/>
<path d="m361.5 1.5v753.97c43.077-8.7763 82.78-26.825 117-51.969v-702h-117z" fill="#2b5df2" stroke="#000" stroke-width="3"/>
<path d="m1.5 1.5v218.53l480.38 480.97c66.654-50.421 111.68-128.1 118.66-216.53l-482.34-482.97h-116.69z" fill="#fff" stroke="#000" stroke-width="2.9999"/>
</g>
<g fill="#e20909" stroke="#000">
<path transform="matrix(.95319 .027309 -.02836 1.0004 697.99 230.17)" d="m-341.6 220.58-71.139-35.416-69.504 38.525 11.699-78.601-58.117-54.197 78.369-13.162 33.586-72.021 36.736 70.466 78.874 9.6863-55.665 56.713 15.161 78.007z" stroke-width="3.071"/>
<path transform="matrix(.95319 .027309 -.02836 1.0004 527.99 57.025)" d="m-341.6 220.58-71.139-35.416-69.504 38.525 11.699-78.601-58.117-54.197 78.369-13.162 33.586-72.021 36.736 70.466 78.874 9.6863-55.665 56.713 15.161 78.007z" stroke-width="3.071"/>
<path transform="matrix(.95319 .027309 -.02836 1.0004 867.99 400.17)" d="m-341.6 220.58-71.139-35.416-69.504 38.525 11.699-78.601-58.117-54.197 78.369-13.162 33.586-72.021 36.736 70.466 78.874 9.6863-55.665 56.713 15.161 78.007z" stroke-width="3.071"/>
</g>
<g>
<path d="m1.5 1.5v458.87c0 166.31 134.31 301.13 300 301.13 165.69 0 300-134.82 300-301.13v-458.87h-600z" fill="url(#a)"/>
<path d="m1.5 1.5v458.87c0 166.31 134.31 301.13 300 301.13 165.69 0 300-134.82 300-301.13v-458.87h-600z" fill="none" stroke="#000" stroke-width="3"/>
</g>
</svg>
